X: 1
T: Hullichan
M: 6/8
L: 1/8
R: jig
K: Gmaj
|:GAG BGB|ded dBG|cBc ege|dBG A2D|
GAG BGB|ded B2g|fed cBA|G3 G3:|
|:ded Bcd|ece e2e|fgf def|gBd gfe|
ded Bcd|ece gfe|ded cBA|G3 G3:||
